!!!OTL: WEH DASS WIR SCHEIDEN MUESSEN
!!!ARE: Europa, Mitteleuropa, Deutschland, Rheinland
!!!SCT: B0491
!!!YEM: Copyright 1995, estate of Helmut Schaffrath.
**kern
*ICvox
*Ivox
!! Mixed meters:  4/4; 3/4
*M4/4
*k[]
*C:
=1
{4G
8E
8G
4.c
8c
=2
*M3/4
4c
4B
4r}
=3
{4G
=4
*M4/4
4.G
8c
4f
4e
=5
*M3/4
4e
4d
4r}
=6
{4c
=7
*M4/4
4.G
8A
4B-
4B-
=8
*M3/4
4B-
4A
4r}
=9
{4A
=10
*M4/4
4.A
8B
4c
4c
=11
*M3/4
4c
4B
4r}
=12
{4G
=13
2G
4c
=14
2e
4c
=15
2c
4A
=16
2G}
{4e
=17
2f
4e
=18
4e
4d
4c
=19
2c
4B
=20
2c
4r}
==
!!!AGN: Abschieds - Lied
!!!ONB: ESAC (Essen Associative Code) Database: BOEHME
!!!AMT: irregular
!!!AIN: vox
!!!EED: Helmut Schaffrath
!!!EEV: 1.0
*-
